X: 158
T:Great North Run '86
C:Robert Whitehead
M:4/4
L:1/8
K:G
G2 G2 FGAF | GABc d2 B2 | e2 ce d2 G2 | ABAG E2 D2 | 
G2 G2 FGAF | GABc d2 B2 | e2 ce dBGB | A2 F2 G4 :| 
g2 eg f2 d2 | e2 ce d2 B2 | e2 ce d2 G2 | ABAG E2 D2 | 
G2 G2 FGAF | GABc d2 B2 | e2 ce dBGB | A2 F2 G4 :| 

